packages/tokens/icons/thumbsUpFilled/size16Px.svg

<svg viewBox="0 0 16 16" fill="none" xmlns="http://www.w3.org/2000/svg" width="1em" height="1em"><path fill-rule="evenodd" clip-rule="evenodd" d="M6.51348 4.87491C6.21372 5.17389 5.70715 5.43163 4.85938 5.48837C4.68488 5.1959 4.36532 5.00001 4 5.00001L2 5.00001C1.44772 5.00001 1 5.44772 1 6.00001L1 13C1 13.5523 1.44772 14 2 14H4C4.45218 14 4.83426 13.6999 4.95791 13.288L5.8541 13.7361C6.20124 13.9096 6.58402 14 6.97214 14H10.4999H11.9999H12C12.8284 13.9999 13.4999 13.3284 13.4999 12.5C13.4999 12.2326 13.4299 11.9816 13.3073 11.7642C13.7239 11.4977 14 11.031 14 10.4998C14 10.2325 13.9301 9.98159 13.8076 9.76426C14.224 9.49772 14.5 9.03109 14.5 8.50001C14.5 8.23268 14.4301 7.98169 14.3075 7.76432C14.724 7.49779 15 7.03114 15 6.50001C15 5.67158 14.3284 5.00001 13.5 5.00001H9.99991L9.99993 4.50004V4.50001L9.99992 2.49998C9.99992 1.67151 9.32828 0.999934 8.49982 1C7.67164 1.00007 6.99993 1.6711 6.99994 2.49969L6.99995 3.56507C6.99995 4.06787 6.85536 4.53393 6.51348 4.87491Z" fill="currentColor"/></svg>

<svg xmlns="http://www.w3.org/2000/svg" fill="none" viewBox="0 0 16 16" width="1em" height="1em"><path fill="currentColor" fill-rule="evenodd" d="M6.513 4.875c-.3.299-.806.557-1.654.613A1 1 0 0 0 4 5H2a1 1 0 0 0-1 1v7a1 1 0 0 0 1 1h2a1 1 0 0 0 .958-.712l.896.448A2.5 2.5 0 0 0 6.972 14H12a1.5 1.5 0 0 0 1.307-2.236 1.499 1.499 0 0 0 .5-2 1.499 1.499 0 0 0 .5-2A1.499 1.499 0 0 0 13.5 5H10V2.5a1.5 1.5 0 0 0-3 0v1.065c0 .503-.145.969-.487 1.31Z" clip-rule="evenodd"/></svg>
